packages/kaspersky-hexa-ui-icons/src/iconsSVGs/32/AlarmOff.svg

<svg width="32" height="32" viewBox="0 0 32 32" fill="none" xmlns="http://www.w3.org/2000/svg">
<path d="M16 2C16.5523 2 17 2.44772 17 3V4.05493C21.5 4.55237 25 8.36745 25 13V20.7754L23 18.7754V13C23 9.13401 19.866 6 16 6C14.3791 6 12.8869 6.55092 11.7004 7.47573L10.2777 6.05307C11.5912 4.96989 13.2171 4.25202 15 4.05493V3C15 2.44772 15.4477 2 16 2Z" fill="black"/>
<path fill-rule="evenodd" clip-rule="evenodd" d="M7.82228 9.23649L4.29289 5.70711C3.90237 5.31658 3.90237 4.68342 4.29289 4.29289C4.68342 3.90237 5.31658 3.90237 5.70711 4.29289L27.7071 26.2929C28.0976 26.6834 28.0976 27.3166 27.7071 27.7071C27.3166 28.0976 26.6834 28.0976 26.2929 27.7071L24.5858 26H7C6.44772 26 6 25.5523 6 25C6 24.4477 6.44772 24 7 24V13C7 11.6564 7.29443 10.3816 7.82228 9.23649ZM22.5858 24L9.36097 10.7752C9.12684 11.4741 9 12.2222 9 13V24H22.5858Z" fill="black"/>
<path d="M15.9999 30C14.6937 30 13.5825 29.1652 13.1707 28H18.8292C18.4174 29.1652 17.3062 30 15.9999 30Z" fill="black"/>
</svg>

<svg xmlns="http://www.w3.org/2000/svg" width="32" height="32" fill="none" viewBox="0 0 32 32"><path fill="#000" fill-rule="evenodd" d="M17 3c0-.5523-.4477-1-1-1s-1 .4477-1 1v1.055c-1.7829.197-3.4088.9149-4.7223 1.998l1.4227 1.4227C12.8869 6.551 14.3791 6 16 6c3.866 0 7 3.134 7 7v5.7754l2 2V13c0-4.6325-3.5-8.4476-8-8.945zM7.8223 9.2365 4.2929 5.707c-.3905-.3905-.3905-1.0237 0-1.4142s1.0237-.3905 1.4142 0l22 22c.3905.3905.3905 1.0237 0 1.4142s-1.0237.3905-1.4142 0L24.5858 26H7c-.5523 0-1-.4477-1-1s.4477-1 1-1V13c0-1.3436.2944-2.6184.8223-3.7635M22.5858 24 9.361 10.7752A6.99 6.99 0 0 0 9 13v11zm-9.4151 4c.4118 1.1652 1.523 2 2.8292 2s2.4175-.8348 2.8293-2z"/></svg>
